X:30
T:L'harmonica
R:polka
O:France
M:C
L:1/8
K:C
z6 e>d|cA AG EA Ac|B/2A/2G/2A/2 BG A2 e>d|cA AG EA Ae|
e>d cB A2 zB|c>B ce d>c de/2d/2|cB Ac B2 z e/2d/2|cA AG EA Ae|
e>d cB A2 e>d|cA AG E/2A/2A/2A/2 AA|G/2G/2G/2G/2 G/2A/2B/2c/2 d2
e>d|cA AG E/2A/2A/2A/2 AA|ee e/2d/2c/2B/2 A4||
W:
W:Dans mon sac de matelot, j'ai mis tout ce que j'avais de plus
beau
W:Souvenirs de tous pays, bouteille de rhum et de whisky
W:Une montre et elle ne marche pas, ma pipe et mon tabac
W:J'y ai mis l'harmonica, qu'j'avais acheté à Malaga.
W:
W:Avec mon harmonica
W:Je souffle, la voilà
W:L'harmonica, l'harmonica
W:Pour la gigue et la polka
W:Ecoutez çà les gars
W:Faut faire de l'harmonica
W:
W:Il m'accompagne partout, une chanson prête à chaque trou
W:Il sait des tas de refrains, dont les plus beaux sont de marins
W:A bord pendant les quarts à bord, il fait rêver les gars
W:Il leur parle de la terre, de la mer et de leurs amours.
W:
W:Du temps où j'étais pas manchot, je faisais l'amour dans les pays chauds
W:A une sombre beauté, qui ne voulait pas se laisser tenter
W:Sa peau et son corps étaient noirs, mais elle ne voulait rien
savoir
W:Je lui dit que j'étais matelot, elle a crié je suis perdue.
W:
W:Celui qu'a composé la chanson, c'est Henri Jacques matelot de
pont
W:Si elle est à votre goût les gars, faut lui payer un coup
W:Avec sa gueule de trafiquant, faut lui rincer les dents
W:Offrez-lui un pot de tafia, je vous jure bien qu'il le boira.




